X:8503
T:Hector the Hero
R:Waltz
C:James Skinner 1903
O:Scotland
Z:Paul Hardy's Annex Tunebook 2015 (see www.paulhardy.net). Creative Commons cc by-nc-sa licenced.
M:3/4
L:1/4
Q:1/4=100
K:D
D/E/|"D"F3/2E/D|"G"B2A/F/|"D"A2 A/F/|A2D/E/|"Bm"F2E/D/|"G"B2A/F/|"Em"E3|"A"E2F/A/|
"Bm"F3/2E/D|"G"B2A/F/|"D"A2D|"G"d2B|"D"A2D/F/|"A"E2D|"D"D3-|"D"D2:|
|:F/A/|"G"B2G/B/|"G"d2c/B/|"D"A2-A/B/|A2F/A/|"Bm"B2A/F/|"Bm"A2D/F/|"Em"E2-E/F/|"A"E2F/A/|
"Bm"B2G/B/|"G"d2c/B/|"D"A2G/F/|"G"d2G|"D"F2D/F/|"A7"E2D|"D"D3-|D2:|

